X:1
T:Le Vent dans la plaine
T:Le Vent dans la plaine
T:from Preludes, Bk 1, No.3 
T:Claude Debussy (1862-1918) 
C:Claude Debussy (1862-1918)
%%score { ( 1 5 6 ) | ( 2 3 4 ) }
L:1/8
Q:1/4=126
M:4/4
K:Gb
V:1 treble nm="Grand Piano" snm="Pno."
V:5 treble 
V:6 treble 
V:2 treble 
V:3 treble 
V:4 treble 
V:1
"^Animé"!pp!"^aussi légèrement que possible"[I:staff +1] (6:4:6(B,/[I:staff -1]C/B/c/B/C/[I:staff +1] (6:4:6B,/[I:staff -1]C/B/c/B/C/[I:staff +1] (6:4:6B,/[I:staff -1]C/B/c/B/C/[I:staff +1] (6:4:6B,/[I:staff -1]C/B/c/B/C/ | %1
[I:staff +1] (6:4:6B,/[I:staff -1]C/B/c/B/C/[I:staff +1] (6:4:6B,/[I:staff -1]C/B/c/B/C/[I:staff +1] (6:4:6B,/[I:staff -1]C/B/c/B/C/[I:staff +1] (6:4:6B,/[I:staff -1]C/B/c/B/C/) | %2
[I:staff +1] (6:4:6(B,/[I:staff -1]C/B/c/B/C/ (6:4:6x/ C/B/c/B/C/ (6:4:6x/ C/B/c/B/C/ (6:4:6x/ C/B/c/B/C/ | %3
 (6:4:6x/ C/B/c/B/C/ (6:4:6x/ C/B/c/B/C/ (6:4:6x/ C/B/c/B/C/ (6:4:6x/ C/B/c/B/C/) | %4
!<(! (6:4:6x/ (C/B/c/!<)!!p!!>(!B/C/!>)!!pp! (6:4:6x/ C/B/c/B/C/!<(! (6:4:6x/ C/B/c/!<)!!p!!>(!B/C/!>)!!pp! (6:4:6x/ C/B/c/B/C/ | %5
!<(! (6:4:6x/ C/B/c/!<)!!p!!>(!B/C/!>)!!pp! (6:4:6x/ C/B/c/B/C/!<(! (6:4:6x/ C/B/c/!<)!!p!!>(!B/C/!>)!!pp! (6:4:6x/ C/B/c/B/C/) | %6
!pp![I:staff +1] (6:4:6(B,/[I:staff -1]C/B/c/B/C/[I:staff +1] (6:4:6B,/[I:staff -1]C/B/c/B/C/[I:staff +1] (6:4:6B,/[I:staff -1]C/B/c/B/C/[I:staff +1] (6:4:6B,/[I:staff -1]C/B/c/B/C/ | %7
[I:staff +1] (6:4:6B,/[I:staff -1]C/B/c/B/C/[I:staff +1] (6:4:6B,/[I:staff -1]C/B/c/B/C/[I:staff +1] (6:4:6B,/[I:staff -1]C/B/c/B/C/[I:staff +1] B/!<(![I:staff -1]c/b/!<)!!p!c'/) | %8
!pp!!8va(! (.[d'e'g'b'].[b=c'e'g'].[gbd'e'].[egbc']!8va)! .[degb].[B=ceg].[GBde].[EGBc] | %9
!>(! .[DEGB].[B,=CEG][K:bass].[G,B,DE]!>)![Q:1/4=120]"^Cédez"!ppp!.[E,G,B,C][Q:1/4=110] !tenuto![D,E,G,B,]4)[Q:1/4=100] | %10
[K:treble]!pp![Q:1/4=126]"^a tempo"!8va(! (.[d'e'g'b'].[b=c'e'g'].[gbd'e'].[egbc']!8va)! .[degb].[B=ceg].[GBde].[EGBc] | %11
!>(! .[DEGB].[B,=CEG][K:bass].[G,B,DE]!>)![Q:1/4=120]"^Cédez"!ppp!!<(!.[E,G,B,C][Q:1/4=110] !tenuto![D,E,G,B,]4)!<)![Q:1/4=100] | %12
!p![Q:1/4=126]"^a tempo"[I:staff +1] (6:4:6(B,,,/[I:staff -1]C,/B,/C/B,/C,/[I:staff +1] (6:4:6B,,/!f!!<(![I:staff -1]C,/B,/C/B,/!<)!!ff!C,/[K:treble][I:staff +1] (6:4:6B,/[I:staff -1]C/B/c/B/C/[I:staff +1] (6:4:6B,/[I:staff -1]C/B/c/B/C/ | %13
[I:staff +1] (6:4:6B,/[I:staff -1]C/B/c/B/C/[I:staff +1] (6:4:6B,/[I:staff -1]C/B/c/B/C/[I:staff +1] (6:4:6B,/[I:staff -1]C/B/c/B/C/[I:staff +1] (6:4:6B,/[I:staff -1]C/B/c/B/C/) | %14
!pp![I:staff +1] (6:4:6(__B,/[I:staff -1]C/__B/c/B/C/ (6:4:6x/ C/B/c/B/C/ (6:4:6x/ C/B/c/B/C/ (6:4:6x/ C/B/c/B/C/ | %15
 (6:4:6x/ C/__B/c/B/C/ (6:4:6x/!<(! C/B/c/B/C/ (6:4:6x/ C/B/c/B/C/!<)!!p! (6:4:6x/ C/B/c/B/C/) | %16
 (6:4:6x/ (C/__B/c/B/C/ (6:4:6x/ C/B/c/B/C/ (6:4:6x/ C/B/c/B/C/ (6:4:6x/ C/B/c/B/C/ | %17
!pp![I:staff +1] (6:4:6B,/[I:staff -1]C/B/c/B/C/[I:staff +1] (6:4:6B,/[I:staff -1]C/B/c/B/C/[I:staff +1] (6:4:6B,/[I:staff -1]C/B/c/B/C/[I:staff +1] (6:4:6B,/[I:staff -1]C/B/c/B/C/) | %18
!pp![I:staff +1] (6:4:6(__B,/[I:staff -1]C/__B/c/B/C/ (6:4:6x/ C/B/c/B/C/ (6:4:6x/ C/B/c/B/C/ (6:4:6x/ C/B/c/B/C/ | %19
 (6:4:6x/ C/__B/c/B/C/ (6:4:6x/!<(! C/B/c/B/C/ (6:4:6x/ C/B/c/B/C/ (6:4:6x/ C/B/c/B/C/)!<)! || %20
[K:C] (6:4:6x/ (B,/A/B/A/B,/ (6:4:6x/ B,/A/B/A/B,/ (6:4:6x/ B,/A/B/A/B,/ (6:4:6x/ B,/A/B/A/B,/ | %21
[K:bass]!pp! (6:4:6A,/)B,/A,/B,/A,/B,/[K:treble] (6:4:6_D/_E/D/E/D/E/ (6:4:6A/B/A/B/A/B/ (6:4:6D/E/D/E/D/E/ | %22
[K:bass] (6:4:6(A,/B,/A,/B,/A,/B,/ (6:4:6A,/B,/A,/B,/A,/B,/ (6:4:6A,/B,/A,/B,/A,/B,/ (6:4:6A,/B,/A,/B,/A,/B,/ | %23
!<(! (6:4:6A,/B,/A,/B,/A,/B,/ (6:4:6A,/B,/A,/B,/A,/B,/ (6:4:6B,/^C/B,/C/B,/C/ (6:4:6B,/C/B,/C/B,/!<)!!mp!C/) | %24
!pp! (6:4:6_B,/C/B,/C/B,/C/[K:treble] (6:4:6D/E/D/E/D/E/ (6:4:6_B/c/B/c/B/c/ (6:4:6D/E/D/E/D/E/ | %25
[K:bass] (6:4:6_B,/C/B,/C/B,/C/ (6:4:6B,/C/B,/C/B,/C/ (6:4:6B,/C/B,/C/B,/C/ (6:4:6B,/C/B,/C/B,/C/ | %26
!<(! (6:4:6_B,/C/B,/C/B,/C/[K:treble] (6:4:6D/E/D/E/D/E/ (6:4:6_B/c/B/c/B/c/ d/e/ d'/e'/!<)! | %27
[K:Gb]!f!!<(! (!>![gbd'g']/[GBdg]/!<)!!ff![I:staff +1]!tenuto![D,G,B,D])!p![I:staff -1] [G,B,DG]6- | %28
 [G,B,DG]2 (!tenuto![_F,__A,C_F]2 !tenuto![D,=F,_A,D]2 !tenuto![_F,__A,CF]2) | %29
!f!!<(! (!>![gbd'g']/[GBdg]/!<)!!ff![I:staff +1][D,G,B,D])!p![I:staff -1] [G,B,DG]2!f!!<(! (!>![__bd'_f'__b']/[__Bd_fb]/!<)!!ff![I:staff +1][_F,__B,D_F])!p![I:staff -1] [__B,D_FB]2 | %30
!f!!<(! (!>![gbd'g']/[GBdg]/!<)!!ff![I:staff +1]!tenuto![D,G,B,D])!p![I:staff -1] [G,B,DG]6- | %31
 [G,B,DG]2 (!tenuto![_F,__A,C_F]2 !tenuto![D,=F,_A,D]2 !tenuto![_F,__A,CF]2) || %32
[K:C]!f!!<(! (!>![gbd'g']/[GBdg]/!<)!!ff![I:staff +1]!tenuto![D,G,B,D])!p![I:staff -1] [G,B,DG]2!f!!<(! (!>![b^d'^f'b']/[B^d^fb]/!<)!!ff![I:staff +1]!tenuto![^F,B,^D^F])!p![I:staff -1] [B,DFB]2 | %33
!f!!<(! (!>![^g^b^d'^g']/[^G^B^dg]/!<)!!ff![I:staff +1]!tenuto![^D,^G,^B,^D]) (6:4:6(G/[I:staff -1]A/g/a/g/A/[I:staff +1] (6:4:6G/[I:staff -1]A/g/a/g/A/[I:staff +1] (6:4:6G/[I:staff -1]A/g/a/g/A/ | %34
"_dim. molto"[I:staff +1] (6:4:6^G/[I:staff -1]A/^g/a/g/A/[I:staff +1] (6:4:6G/[I:staff -1]A/g/a/g/A/[I:staff +1] (6:4:6G/[I:staff -1]A/g/a/g/A/[I:staff +1] (6:4:6G/[I:staff -1]A/g/a/g/A/) | %35
!p![I:staff +1] (6:4:6(^G/[I:staff -1]A/^g/a/g/A/ (6:4:6x/ A/g/a/g/A/ (6:4:6x/ A/g/a/g/A/ (6:4:6x/ A/g/a/g/A/ | %36
 (6:4:6x/ A/^g/a/g/A/ (6:4:6x/!<(! A/g/a/g/A/ (6:4:6x/ A/g/a/g/A/!<)!!mp! (6:4:6x/ A/g/a/g/A/) | %37
!p![I:staff +1] (6:4:6(^G/[I:staff -1]A/^g/a/g/A/[I:staff +1] (6:4:6=G/[I:staff -1]_A/=g/_a/g/A/[I:staff +1] (6:4:6^F/[I:staff -1]G/^f/g/f/G/[I:staff +1] (6:4:6=A/[I:staff -1]_B/=a/_b/a/B/ | %38
[I:staff +1] (6:4:6^G/[I:staff -1]A/^g/a/g/A/[I:staff +1] (6:4:6=G/[I:staff -1]_A/=g/_a/g/A/[I:staff +1] (6:4:6^F/[I:staff -1]G/^f/g/f/G/[I:staff +1] (6:4:6=F/[I:staff -1]_G/=f/_g/f/G/) | %39
!p![I:staff +1] (6:4:6(E/[I:staff -1]F/e/f/e/F/ (6:4:6x/ F/e/f/e/F/ (6:4:6x/ F/e/f/e/F/ (6:4:6x/ F/e/f/e/F/ | %40
 (6:4:6x/ F/e/f/e/F/ (6:4:6x/!<(! F/e/f/e/F/ (6:4:6x/ F/e/f/e/F/!<)!!mp! (6:4:6x/ F/e/f/e/F/) | %41
!p![I:staff +1] (6:4:6(E/[I:staff -1]F/e/f/e/F/[I:staff +1] (6:4:6_E/[I:staff -1]_F/_e/_f/e/F/[I:staff +1] (6:4:6D/[I:staff -1]_E/d/_e/d/E/[I:staff +1] (6:4:6=F/[I:staff -1]_G/=f/_g/f/G/ | %42
[I:staff +1] (6:4:6=E/[I:staff -1]F/e/f/e/F/[I:staff +1] (6:4:6_E/[I:staff -1]_F/_e/_f/e/F/[I:staff +1] (6:4:6C/[I:staff -1]D/c/d/c/D/[I:staff +1] (6:4:6_C/[I:staff -1]_D/_c/_d/c/D/) | %43
[K:Gb]!p![I:staff +1] (6:4:6B,/[I:staff -1]C/B/c/B/C/ (6:4:6x/ C/B/c/B/C/ (6:4:6x/ C/B/c/B/C/ (6:4:6x/ C/B/c/B/C/ | %44
[I:staff +1] (6:4:6(G/[I:staff -1]C/B/c/B/C/[I:staff +1] (6:4:6E/[I:staff -1]C/B/c/B/C/[I:staff +1] (6:4:6D/[I:staff -1]C/B/c/B/C/[I:staff +1] (6:4:6B,/[I:staff -1]C/B/c/B/C/) | %45
 (6:4:6x/ (C/B/c/B/C/ (6:4:6x/ C/B/c/B/C/ (6:4:6x/ C/B/c/B/C/ (6:4:6x/ C/B/c/B/C/) | %46
 (6:4:6x/ (C/B/c/B/C/ (6:4:6x/ C/B/c/B/C/ (6:4:6x/ C/B/c/B/C/ (6:4:6x/ C/B/c/B/C/) | %47
 (6:4:6x/ (C/B/c/B/C/ (6:4:6x/ C/B/c/B/C/ (6:4:6x/ C/B/c/B/C/ (6:4:6x/ C/B/c/B/C/) | %48
 (6:4:6x/ (C/B/c/B/C/ (6:4:6x/ C/B/c/B/C/ (6:4:6x/ C/B/c/B/C/ (6:4:6x/ C/B/c/b/c'/) | %49
!pp!!8va(! .[d'e'g'b'].[b=c'e'g'].[gbd'e'].[egbc']!8va)! .[degb].[B=ceg].[GBde].[EGBc] | %50
[Q:1/4=100]"^Cédez"!>(! .[DEGB].[B,=CEG][K:bass][Q:1/4=80].[G,B,DE]!>)!!ppp!.[E,G,B,C][K:treble][Q:1/4=126]"^a tempo"[I:staff +1] (6:4:6(B,/[I:staff -1]_C/B/c/B/C/[I:staff +1] (6:4:6B,/[I:staff -1]C/B/c/B/C/) | %51
!pp!!8va(! .[d'e'g'b'].[b=c'e'g'].[gbd'e'].[egbc']!8va)! .[degb].[B=ceg].[GBde].[EGBc] | %52
[Q:1/4=100]"^Cédez"!>(! .[DEGB].[B,=CEG][K:bass][Q:1/4=80].[G,B,DE]!>)!!ppp!.[E,G,B,C][K:treble][Q:1/4=126]"^a tempo"[I:staff +1] (6:4:6B,/[I:staff -1]_C/B/c/B/C/[I:staff +1] (6:4:6B,/[I:staff -1]C/B/c/B/C/ | %53
!pp!!<(![I:staff +1] (3(B,C[I:staff -1][CEG]!<)!!p! [=C=E=G]6) | %54
!pp!!<(![I:staff +1] (3(B,C[I:staff -1][CEG]!<)!!p! [=C=E=G]6-) | [CEG]2!pp! [DFA]6- | %56
[Q:1/4=115]"^Un peu retenu" [DFA]4!pp![Q:1/4=100] [=D^F=A]4[Q:1/4=110][Q:1/4=95] | %57
!ppp![Q:1/4=90][I:staff +1] (3(.B,.C[I:staff -1]!arpeggio!!tenuto![Bb]-) [Bb]6 | !fermata!z8 |] %59
V:2
 .B, x .B, x .B, x .B, x | .B, x .B, x .B, x .B, x | z z3/4 (E/4 D2-) (D7/4(E/4 D7/4)E/4 | %3
 G7/4(E/4 D4) !tenuto!B,2-) | (B,2{GE} D) z (B,2{F__E} D) z | (B,2{G_E} D) z (B,2{F__E} D) z | %6
 .B, x .B, x .B, x .B, x | .B, x .B, x .B, x!ped! .B x!ped-up! | %8
[K:bass]!ped! [E,,,B,,,]8-!ped-up! | %9
!ped! ([E,,,B,,,]4!ped-up!!ped! .[A,,,E,,]2!ped-up!!ped! .[G,,,D,,]2)!ped-up! | %10
!ped! [E,,,B,,,]8-!ped-up! | %11
!ped! ([E,,,B,,,]4!ped-up!!ped! .[G,,,D,,]2!ped-up!!ped! .[A,,,E,,]2)!ped-up! | %12
 B,,,2!sfz!!ped! x2!ped-up!!p! .B, x .B, x |!>(! .B, x .B, x .B, x .B, x!>)! | %14
[K:treble] z z3/4 (E/4 D2-) (D7/4E/4 D7/4E/4) | (G7/4E/4) (D4 E2) | %16
!pp!!<(! (G2!<)!!p!!ped! A2)!ped-up!!pp!!<(! (G2!<)!!p!!ped! A2)!ped-up! | %17
 .B, x .B, x .B, x .B, x | z z3/4 (E/4 D2-) (D7/4E/4) (D7/4E/4) | (A7/4F/4) (E4 F2) || %20
[K:C]!<(!!ped! (D2!<)!!ped-up!!mp!!ped! G2)!ped-up!!>(!!ped! (D2!>)!!ped-up!!p!!ped! F2)!ped-up! | %21
[K:bass] !tenuto![G,,_D,]8- | %22
!ped! ([G,,D,]2!ped-up!!ped! [F,,C,]2!ped-up!!ped! [=D,,A,,]2!ped-up!!ped! [F,,C,]2!ped-up! | %23
!ped! [G,,_D,]4!ped-up!!ped! [A,,E,]4)!ped-up! |!ped! [_A,,=D,]8-!ped-up! | %25
!ped! ([A,,D,]2!ped-up!!ped! [_G,,_D,]2!ped-up!!ped! [_E,,_B,,]2!ped-up!!ped! [G,,D,]2!ped-up! | %26
!ped! [_A,,=D,]8)!ped-up! | %27
[K:Gb]!ped! G,,,/D,,/ z!ped-up! (6:4:6G,,,/!pp!D,,/G,,,/D,,/G,,,/D,,/!ped! (6:4:6G,,,/D,,/G,,,/D,,/G,,,/D,,/ (6:4:6G,,,/D,,/G,,,/D,,/G,,,/D,,/!ped-up! | %28
!ped! (6:4:6(G,,,/D,,/G,,,/D,,/G,,,/D,,/!ped-up!!pp!!ped!!>(! (6:4:6__B,,,/_F,,/B,,,/F,,/B,,,/F,,/!ped-up!!ped! (6:4:6D,,/A,,/D,,/A,,/D,,/A,,/!ped-up!!ped! (6:4:6B,,,/F,,/B,,,/F,,/B,,,/!>)!!ppp!F,,/)!ped-up! | %29
!ped! G,,,/D,,/!ped-up! x3!ped! __B,,,/_F,,/!ped-up! x3 | %30
!ped! G,,,/D,,/ z!ped-up! (6:4:6G,,,/!pp!D,,/G,,,/D,,/G,,,/D,,/!ped! (6:4:6G,,,/D,,/G,,,/D,,/G,,,/D,,/ (6:4:6G,,,/D,,/G,,,/D,,/G,,,/D,,/!ped-up! | %31
!ped! (6:4:6(G,,,/D,,/G,,,/D,,/G,,,/D,,/!ped-up!!pp!!ped!!>(! (6:4:6__B,,,/_F,,/B,,,/F,,/B,,,/F,,/!ped-up!!ped! (6:4:6D,,/A,,/D,,/A,,/D,,/A,,/!ped-up!!ped! (6:4:6B,,,/F,,/B,,,/F,,/B,,,/!>)!!ppp!F,,/)!ped-up! || %32
[K:C]!ped! G,,,/D,,/!ped-up! x3!ped! B,,,/^F,,/!ped-up! x3 | %33
!ped! ^G,,,/^D,,/!ped-up! x[K:treble]!ped! .^G x!ped-up!!ped! .G x!ped-up!!ped! .G x!ped-up! | %34
!ped! .^G x!ped-up!!ped! .G x!ped-up! .G x .G x | z z3/4 (^c/4 B2-) (B7/4c/4) (B7/4c/4) | %36
 (e7/4(^c/4 B4) c2) | %37
!ped!!<(! .^G!ped-up! x!ped! .=G!ped-up! x!ped! .^F!ped-up! x!ped! .A!ped-up! x!<)! | %38
!mp!!ped!!>(! .^G!ped-up! x!ped! .=G!ped-up! x!ped! .^F!ped-up! x!ped! .=F!ped-up! x!>)! | %39
 z z3/4 (A/4 G2-) (G7/4A/4) (G7/4A/4) | (c7/4(A/4 G4) A2) | %41
!ped!!<(! .E!ped-up! x!ped! ._E!ped-up! x!ped! .D!ped-up! x!ped! .F!ped-up! x!<)! | %42
!mp!!ped!!>(! .E!ped-up! x!ped! ._E!ped-up! x!ped! .C!ped-up! x!ped! ._C!ped-up! x!>)! | %43
[K:Gb] z z3/4 (E/4 D2- D7/4E/4) (D7/4E/4) | %44
!ped! (.G2!ped-up!!ped! .E2!ped-up!!ped! .D2!ped-up![K:bass]!ped! !tenuto!B,2-)!ped-up! | B,4 B,4 | %46
!ped! B,4!ped-up!!ped! B,4 | %47
!p!!<(! (B,,2!<)!!mp!!ped! [D,G,D]2)!p!!<(!!ped-up!!ped! (B,,2!ped-up!!<)!!mp!!ped-up!!ped! [E,A,E]2) | %48
!p!!<(!!ped! (B,,2!<)!!mp!!ped-up!!ped! [D,G,D]2)!p!!<(!!ped-up!!ped! (B,,2!<)!!mp!!ped-up!!ped! [E,A,E]2)!ped-up! | %49
!ped! [E,,,B,,,]8-!ped-up! |!ped! [E,,,B,,,]4!<(! .B, x .B, x!ped-up!!<)! | %51
!ped! [E,,,B,,,]8-!ped-up! |!ped! [E,,,B,,,]4!<(! .B, x .B, x!ped-up!!<)! | %53
[K:treble] x2!ped! (6:4:6B,/C/[I:staff -1]B/c/B/C/!ped-up!!ped![I:staff +1] (6:4:6B,/C/[I:staff -1]B/c/B/C/!ped-up!!ped![I:staff +1] (6:4:6B,/C/[I:staff -1]B/c/B/C/ | %54
[I:staff +1] x2!ped! (6:4:6B,/C/[I:staff -1]B/c/B/C/!ped-up!!ped![I:staff +1] (6:4:6B,/C/[I:staff -1]B/c/B/C/!ped-up!!ped![I:staff +1] (6:4:6B,/C/[I:staff -1]B/c/B/C/!ped-up! | %55
!ped![I:staff +1] (6:4:6B,/C/[I:staff -1]B/c/B/C/!ped-up!!ped![I:staff +1] (6:4:6B,/C/[I:staff -1]B/c/B/C/!ped-up!!ped![I:staff +1] (6:4:6B,/C/[I:staff -1]B/c/B/C/!ped-up!!ped![I:staff +1] (6:4:6B,/C/[I:staff -1]B/c/B/C/!ped-up! | %56
!ped![I:staff +1] (6:4:6B,/C/[I:staff -1]B/c/B/C/!ped-up!!ped![I:staff +1] (6:4:6B,/C/[I:staff -1]B/c/B/C/!ped-up!!ped![I:staff +1] (6:4:6B,/C/[I:staff -1]B/c/B/C/!ped-up!!ped![I:staff +1] (6:4:6B,/C/[I:staff -1]B/c/B/C/!ped-up! | %57
!ped![I:staff +1] B,8-!ped-up! | !fermata!B,8 |] %59
V:3
 x8 | x8 | .B, z z2 .B, z z2 | x8 | B,2- B, x !tenuto!B,2- B, x | %5
 !tenuto!B,2- B, x !tenuto!B,2- B, x | x8 | x8 |[K:bass] x8 | x8 | x8 | x8 | x8 | x8 | %14
[K:treble] !tenuto!__B,2- .B, z .B, z z2 | .__B, z z2 .B, z z2 | (D7/4__E/4 _E2) (D7/4__E/4 _E2) | %17
 x8 | !tenuto!__B,2 z2 B,2 z2 | .__B, z z2 .B, z z2 ||[K:C] ([F,A,]2 [B,D]2) ([F,A,]2 _D2) | %21
[K:bass] x8 | x8 | x8 | x8 | x8 | x8 |[K:Gb] G,,,8 | x8 | G,,,4 __B,,,4 | G,,,8 | x8 || %32
[K:C] G,,,4 B,,,4 | ^G,,,4[K:treble] x4 | x8 | !tenuto!^G2- .G z .G z z2 | .^G z z2 .G z z2 | x8 | %38
 x8 | !tenuto!E2- .E z .E z z2 | .E z z2 .E z z2 | x8 | x8 |[K:Gb] B,2- B,2 x4 | x6[K:bass] x2 | %45
 z z/ (E,/ D,2- D,7/4E,/4) (D,7/4E,/4) | (G,2 E,2 D,2 B,,2-) | B,,2 x6 | x8 | x8 | x8 | x8 | x8 | %53
[K:treble] B,8 | B,8 | B,8 | B,8 | x8 | x8 |] %59
V:4
 x8 | x8 | x8 | x8 | x8 | x8 | x8 | x8 |[K:bass] x8 | x8 | x8 | x8 | x8 | x8 |[K:treble] x8 | x8 | %16
 B, x3 B, x3 | x8 | x8 | x8 ||[K:C] x8 |[K:bass] x8 | x8 | x8 | x8 | x8 | x8 |[K:Gb] x8 | x8 | x8 | %30
 x8 | x8 ||[K:C] x8 | x2[K:treble] x6 | x8 | x8 | x8 | x8 | x8 | x8 | x8 | x8 | x8 |[K:Gb] x8 | %44
 x6[K:bass] x2 | x8 | x8 | x8 | x8 | x8 | x8 | x8 | x8 |[K:treble] x8 | x8 | x8 | x8 | x8 | x8 |] %59
V:5
 x8 | x8 | x8 | x8 | x8 | x8 | x8 | x8 |!8va(! x4!8va)! x4 | x2[K:bass] x6 | %10
[K:treble]!8va(! x4!8va)! x4 | x2[K:bass] x6 | x4[K:treble] x4 | x8 | x8 | x8 | x8 | x8 | x8 | %19
 x8 ||[K:C] x8 |[K:bass] !tenuto!F,8[K:treble] |[K:bass] F,8 | F,4 G,4 | _G,8[K:treble] | %25
[K:bass] _G,8 | _G,2[K:treble] x2 _G2 x2 |[K:Gb] x8 | x8 | x8 | x8 | x8 ||[K:C] x8 | x8 | x8 | x8 | %36
 x8 | x8 | x8 | x8 | x8 | x8 | x8 |[K:Gb] x8 | x8 | x8 | x8 | x8 | x8 |!8va(! x4!8va)! x4 | %50
 x2[K:bass] x2[K:treble] x4 |!8va(! x4!8va)! x4 | x2[K:bass] x2[K:treble] x4 | x8 | x8 | x8 | x8 | %57
 x8 | x8 |] %59
V:6
 x8 | x8 | x8 | x8 | x8 | x8 | x8 | x8 |!8va(! x4!8va)! x4 | x2[K:bass] x6 | %10
[K:treble]!8va(! x4!8va)! x4 | x2[K:bass] x6 | x4[K:treble] x4 | x8 | x8 | x8 | x8 | x8 | x8 | %19
 x8 ||[K:C] x8 |[K:bass] x2[K:treble] x2 F2 x2 |[K:bass] x8 | x8 | x2[K:treble] x2 _G2 x2 | %25
[K:bass] x8 | x2[K:treble] x6 |[K:Gb] x8 | x8 | x8 | x8 | x8 ||[K:C] x8 | x8 | x8 | x8 | x8 | x8 | %38
 x8 | x8 | x8 | x8 | x8 |[K:Gb] x8 | x8 | x8 | x8 | x8 | x8 |!8va(! x4!8va)! x4 | %50
 x2[K:bass] x2[K:treble] x4 |!8va(! x4!8va)! x4 | x2[K:bass] x2[K:treble] x4 | x8 | x8 | x8 | x8 | %57
 x8 | x8 |] %59

